tools/download-figma-icons/icons/solid/hourglass.svg

<svg width="24" height="24" viewBox="0 0 24 24" fill="none" xmlns="http://www.w3.org/2000/svg">
<path d="M18.75 6.435V4.5H19.14C19.7475 4.5 20.25 3.9975 20.25 3.39V1.11C20.25 0.5025 19.7475 0 19.14 0H4.86C4.2525 0 3.75 0.5025 3.75 1.11V3.39C3.75 3.9975 4.2525 4.5 4.86 4.5H5.25V6.435C5.25 7.2675 5.64 8.0625 6.2925 8.565L10.77 12L6.2925 15.435C5.64 15.9375 5.25 16.7325 5.25 17.565V19.5H4.86C4.2525 19.5 3.75 20.0025 3.75 20.61V22.89C3.75 23.4975 4.2525 24 4.86 24H19.14C19.7475 24 20.25 23.4975 20.25 22.89V20.61C20.25 20.0025 19.7475 19.5 19.14 19.5H18.75V17.565C18.75 16.7325 18.36 15.9375 17.7075 15.435L13.23 12L17.7075 8.565C18.36 8.0625 18.75 7.2675 18.75 6.435ZM16.7925 16.6275C17.0775 16.845 17.25 17.1975 17.25 17.565V19.5H6.75V17.565C6.75 17.1975 6.9225 16.845 7.2075 16.6275L12 12.945L16.7925 16.6275ZM17.25 6.435C17.25 6.8025 17.0775 7.155 16.7925 7.3725L12 11.055L7.2075 7.3725C6.9225 7.155 6.75 6.8025 6.75 6.435V4.5H17.25V6.435Z" fill="black"/>
</svg>

<svg width="24" height="24" viewBox="0 0 24 24" fill="none" xmlns="http://www.w3.org/2000/svg"><path d="M18.75 6.435V4.5h.39c.607 0 1.11-.502 1.11-1.11V1.11c0-.608-.503-1.11-1.11-1.11H4.86c-.607 0-1.11.502-1.11 1.11v2.28c0 .607.503 1.11 1.11 1.11h.39v1.935c0 .833.39 1.628 1.043 2.13L10.77 12l-4.477 3.435a2.701 2.701 0 0 0-1.043 2.13V19.5h-.39c-.607 0-1.11.503-1.11 1.11v2.28c0 .607.503 1.11 1.11 1.11h14.28c.607 0 1.11-.503 1.11-1.11v-2.28c0-.607-.503-1.11-1.11-1.11h-.39v-1.935a2.7 2.7 0 0 0-1.043-2.13L13.23 12l4.477-3.435a2.701 2.701 0 0 0 1.043-2.13Zm-1.957 10.193c.285.217.457.57.457.937V19.5H6.75v-1.935c0-.367.173-.72.457-.938L12 12.946l4.793 3.683Zm.457-10.193c0 .368-.172.72-.457.938L12 11.054 7.207 7.372a1.187 1.187 0 0 1-.457-.937V4.5h10.5v1.935Z" fill="currentColor"/></svg>
